SVG_Azure_Grouped/Workload/Certification Authority.svg

<?xml version="1.0" encoding="UTF-8" standalone="no"?>
<!-- Generated by Microsoft Visio, SVG Export Certification Authority.svg Page-1 -->

<svg
   xmlns:dc="http://purl.org/dc/elements/1.1/"
   xmlns:cc="http://creativecommons.org/ns#"
   xmlns:rdf="http://www.w3.org/1999/02/22-rdf-syntax-ns#"
   xmlns:svg="http://www.w3.org/2000/svg"
   xmlns="http://www.w3.org/2000/svg"
   xmlns:sodipodi="http://sodipodi.sourceforge.net/DTD/sodipodi-0.dtd"
   xmlns:inkscape="http://www.inkscape.org/namespaces/inkscape"
   width="0.70869511in"
   height="0.78802013in"
   viewBox="0 0 51.026031 56.737629"
   xml:space="preserve"
   class="st10"
   version="1.1"
   id="svg158"
   sodipodi:docname="Certification Authority.svg"
   style="font-size:12px;overflow:visible;color-interpolation-filters:sRGB;fill:none;fill-rule:evenodd;stroke-linecap:square;stroke-miterlimit:3"
   inkscape:version="0.92.5 (2060ec1f9f, 2020-04-08)"><metadata
   id="metadata162"><rdf:RDF><cc:Work
       rdf:about=""><dc:format>image/svg+xml</dc:format><dc:type
         rdf:resource="http://purl.org/dc/dcmitype/StillImage" /></cc:Work></rdf:RDF></metadata><sodipodi:namedview
   pagecolor="#ffffff"
   bordercolor="#666666"
   borderopacity="1"
   objecttolerance="10"
   gridtolerance="10"
   guidetolerance="10"
   inkscape:pageopacity="0"
   inkscape:pageshadow="2"
   inkscape:window-width="640"
   inkscape:window-height="480"
   id="namedview160"
   showgrid="false"
   inkscape:zoom="1.3878696"
   inkscape:cx="32.709102"
   inkscape:cy="38.574385"
   inkscape:window-x="0"
   inkscape:window-y="0"
   inkscape:window-maximized="0"
   inkscape:current-layer="svg158" />
	<style
   type="text/css"
   id="style2">
	<![CDATA[
		.st1 {fill:url(#grad0-11);stroke:none;stroke-linecap:butt;stroke-width:35.9595}
		.st2 {fill:#003067;stroke:none;stroke-linecap:butt;stroke-width:35.9595}
		.st3 {fill:#50e6ff;stroke:none;stroke-linecap:butt;stroke-width:35.9595}
		.st4 {fill:url(#grad0-31);stroke:none;stroke-linecap:butt;stroke-width:33.9996}
		.st5 {fill:#ffffff;stroke:none;stroke-linecap:butt;stroke-width:33.9996}
		.st6 {fill:#d15900;stroke:none;stroke-linecap:butt;stroke-width:33.9996}
		.st7 {fill:#b31b1b;stroke:none;stroke-linecap:butt;stroke-width:33.9996}
		.st8 {fill:#e62323;stroke:none;stroke-linecap:butt;stroke-width:33.9996}
		.st9 {fill:#ffb34d;stroke:none;stroke-linecap:butt;stroke-width:33.9996}
		.st10 {fill:none;fill-rule:evenodd;font-size:12px;overflow:visible;stroke-linecap:square;stroke-miterlimit:3}
	]]>
	</style>

	<defs
   id="Patterns_And_Gradients">
		<linearGradient
   id="grad0-11"
   x1="-0.00026488133"
   y1="55.99535"
   x2="43.296747"
   y2="55.99535"
   gradientTransform="scale(0.77858043,1.2843888)"
   gradientUnits="userSpaceOnUse">
			<stop
   offset="0"
   stop-color="#949494"
   stop-opacity="1"
   id="stop4" />
			<stop
   offset="0.53"
   stop-color="#a2a2a2"
   stop-opacity="1"
   id="stop6" />
			<stop
   offset="1"
   stop-color="#b3b3b3"
   stop-opacity="1"
   id="stop8" />
		</linearGradient>
		<linearGradient
   id="grad0-31"
   x1="0"
   y1="127.72555"
   x2="28.477359"
   y2="127.72555"
   gradientTransform="scale(1.2248327,0.81643806)"
   gradientUnits="userSpaceOnUse">
			<stop
   offset="0"
   stop-color="#e27908"
   stop-opacity="1"
   id="stop11" />
			<stop
   offset="0.325"
   stop-color="#e47d0a"
   stop-opacity="1"
   id="stop13" />
			<stop
   offset="0.62"
   stop-color="#eb8810"
   stop-opacity="1"
   id="stop15" />
			<stop
   offset="0.91"
   stop-color="#f69a19"
   stop-opacity="1"
   id="stop17" />
			<stop
   offset="1"
   stop-color="#faa21d"
   stop-opacity="1"
   id="stop19" />
		</linearGradient>
	</defs>
	<g
   id="g156"
   transform="translate(-35.959807,-35.960252)">
		<title
   id="title23">Page-1</title>
		<g
   id="group15800-1"
   transform="translate(35.9598,-34.8809)">
			<title
   id="title25">Certification Authority.15800</title>
			<g
   id="group15801-2">
				<title
   id="title27">Page-1</title>
				<g
   id="group15802-3">
					<title
   id="title29">Sheet.15802</title>
					<g
   id="group15803-4"
   transform="translate(0,-1.07865)">
						<title
   id="title31">Sheet.15803</title>
						<g
   id="group15804-5">
							<title
   id="title33">Icon-databases-136.149</title>
							<g
   id="group15805-6">
								<title
   id="title35">path4-5</title>
								<g
   id="group15806-7">
									<title
   id="title37">Sheet.15806</title>
									<g
   id="shape15807-8">
										<title
   id="title39">Sheet.15807</title>
										<path
   d="m 33.71,125.64 a 1.9908,1.92945 -180 0 1 -1.96,1.89 H 1.95 A 1.95648,1.89617 -180 0 1 0,125.64 V 73.81 a 1.92215,1.86291 -180 0 1 1.95,-1.89 h 29.8 a 1.95648,1.89617 -180 0 1 1.96,1.89 z"
   class="st1"
   id="path41"
   inkscape:connector-curvature="0"
   style="fill:url(#grad0-11);stroke:none;stroke-width:35.95949936;stroke-linecap:butt" />
									</g>
								</g>
							</g>
							<g
   id="group15808-12"
   transform="translate(4.94268,-32.5676)">
								<title
   id="title46">path6-7</title>
								<g
   id="group15809-13">
									<title
   id="title48">Sheet.15809</title>
									<g
   id="shape15810-14">
										<title
   id="title50">Sheet.15810</title>
										<path
   d="m 0,123.98 a 3.67269,3.55949 -180 0 1 3.64,-3.53 h 16.81 a 3.67269,3.55949 -180 0 1 3.78,3.53 3.67269,3.55949 -180 0 1 -3.78,3.55 H 3.64 A 3.67269,3.55949 -180 0 1 0,123.98 Z m 0,-10.51 a 3.67269,3.55949 -180 0 1 3.64,-3.56 h 16.81 a 3.67269,3.55949 -180 0 1 3.78,3.56 3.67269,3.55949 -180 0 1 -3.78,3.53 H 3.64 A 3.67269,3.55949 -180 0 1 0,113.47 Z"
   class="st2"
   id="path52"
   inkscape:connector-curvature="0"
   style="fill:#003067;stroke:none;stroke-width:35.95949936;stroke-linecap:butt" />
									</g>
								</g>
							</g>
							<g
   id="group15811-16"
   transform="translate(6.31564,-44.2395)">
								<title
   id="title57">circle8-5</title>
								<g
   id="group15812-17">
									<title
   id="title59">Sheet.15812</title>
									<g
   id="shape15813-18">
										<title
   id="title61">Sheet.15813</title>
										<ellipse
   cx="2.4713399"
   cy="125.138"
   rx="2.4713399"
   ry="2.39517"
   class="st3"
   id="ellipse63"
   style="fill:#50e6ff;stroke:none;stroke-width:35.95949936;stroke-linecap:butt" />
									</g>
								</g>
							</g>
							<g
   id="group15814-20"
   transform="translate(6.31564,-33.7274)">
								<title
   id="title68">circle10-2</title>
								<g
   id="group15815-21">
									<title
   id="title70">Sheet.15815</title>
									<g
   id="shape15816-22">
										<title
   id="title72">Sheet.15816</title>
										<ellipse
   cx="2.4713399"
   cy="125.138"
   rx="2.4713399"
   ry="2.39517"
   class="st3"
   id="ellipse74"
   style="fill:#50e6ff;stroke:none;stroke-width:35.95949936;stroke-linecap:butt" />
									</g>
								</g>
							</g>
						</g>
					</g>
					<g
   id="group15817-24"
   transform="translate(16.146)">
						<title
   id="title81">Management Certificate</title>
						<g
   id="group15818-25">
							<title
   id="title83">g14</title>
							<g
   id="group15819-26"
   transform="translate(0,-6.78542)">
								<title
   id="title85">rect2</title>
								<g
   id="group15820-27">
									<title
   id="title87">Sheet.15820</title>
									<g
   id="shape15821-28">
										<title
   id="title89">Sheet.15821</title>
										<path
   d="m 0,126.44 a 1.16264,1.09454 0 0 0 1.16,1.09 h 32.56 a 1.16264,1.09454 0 0 0 1.16,-1.09 v -21.07 a 1.16264,1.09454 0 0 0 -1.16,-1.09 H 1.16 A 1.16264,1.09454 0 0 0 0,105.37 Z"
   class="st4"
   id="path91"
   inkscape:connector-curvature="0"
   style="fill:url(#grad0-31);stroke:none;stroke-width:33.99959946;stroke-linecap:butt" />
									</g>
								</g>
							</g>
							<g
   id="group15822-32"
   transform="translate(2.03303,-8.8311)">
								<title
   id="title96">rect4</title>
								<g
   id="group15823-33">
									<title
   id="title98">Sheet.15823</title>
									<g
   id="shape15824-34">
										<title
   id="title100">Sheet.15824</title>
										<path
   d="m 0,126.99 a 0.581318,0.547268 0 0 0 0.581306,0.54726 L 30.23,127.53 a 0.581318,0.547268 0 0 0 0.581306,-0.54726 L 30.82,108.93 a 0.581318,0.547268 0 0 0 -0.581306,-0.54726 L 0.58,108.39 a 0.581318,0.547268 0 0 0 -0.581306,0.54726 z"
   class="st5"
   id="path102"
   inkscape:connector-curvature="0"
   style="fill:#ffffff;stroke:none;stroke-width:33.99959946;stroke-linecap:butt" />
									</g>
								</g>
							</g>
							<g
   id="group15825-36"
   transform="translate(6.70314,-13.8645)">
								<title
   id="title107">path6</title>
								<g
   id="group15826-37">
									<title
   id="title109">Sheet.15826</title>
									<g
   id="shape15827-38">
										<title
   id="title111">Sheet.15827</title>
										<path
   d="m 22.26,127 a 0.561928,0.529013 0 0 1 -0.561928,0.52901 L 9.12,127.53 a 0.561928,0.529013 0 1 1 0,-1.0562 l 12.57,0.006 a 0.55999,0.52719 0 0 1 0.561928,0.52719 z m 0,-3.25 a 0.55999,0.52719 0 0 1 -0.561928,0.52719 L 9.12,124.27 a 0.561928,0.529013 0 1 1 0,-1.0562 l 12.57,-0.004 a 0.561928,0.529013 0 0 1 0.561928,0.52901 z m 0,-4.78 a 0.561928,0.529013 0 0 1 -0.561928,0.52901 L 0.59,119.5 a 0.561928,0.529013 0 1 1 0,-1.0562 l 21.1,-0.004 a 0.55999,0.52719 0 0 1 0.561928,0.52719 z"
   class="st6"
   id="path113"
   inkscape:connector-curvature="0"
   style="fill:#d15900;stroke:none;stroke-width:33.99959946;stroke-linecap:butt" />
									</g>
								</g>
							</g>
							<g
   id="group15828-40"
   transform="translate(2.9976)">
								<title
   id="title118">path8</title>
								<g
   id="group15829-41">
									<title
   id="title120">Sheet.15829</title>
									<g
   id="shape15830-42">
										<title
   id="title122">Sheet.15830</title>
										<path
   d="m 6.95,119.26 a 4.89265,4.60607 0 0 1 -6.54,0 L 0,126.91 a 0.645249,0.607453 0 0 0 1.10448,0.45605 L 3.62,124.96 l 2.54,2.43 a 0.645249,0.607453 0 0 0 1.11223,-0.44328 z"
   class="st7"
   id="path124"
   inkscape:connector-curvature="0"
   style="fill:#b31b1b;stroke:none;stroke-width:33.99959946;stroke-linecap:butt" />
									</g>
								</g>
							</g>
							<g
   id="group15831-44"
   transform="translate(0.902961,-6.6693)">
								<title
   id="title129">ellipse10</title>
								<g
   id="group15832-45">
									<title
   id="title131">Sheet.15832</title>
									<g
   id="shape15833-46">
										<title
   id="title133">Sheet.15833</title>
										<ellipse
   cx="5.8382401"
   cy="122.019"
   rx="5.8382401"
   ry="5.5145001"
   class="st8"
   id="ellipse135"
   style="fill:#e62323;stroke:none;stroke-width:33.99959946;stroke-linecap:butt" />
									</g>
								</g>
							</g>
							<g
   id="group15834-48"
   transform="translate(2.31166,-7.99975)">
								<title
   id="title140">ellipse12</title>
								<g
   id="group15835-49">
									<title
   id="title142">Sheet.15835</title>
									<g
   id="shape15836-50">
										<title
   id="title144">Sheet.15836</title>
										<ellipse
   cx="4.4295402"
   cy="123.351"
   rx="4.4295402"
   ry="4.1828599"
   class="st9"
   id="ellipse146"
   style="fill:#ffb34d;stroke:none;stroke-width:33.99959946;stroke-linecap:butt" />
									</g>
								</g>
							</g>
						</g>
					</g>
				</g>
			</g>
		</g>
	</g>
</svg>

<?xml version="1.0" encoding="UTF-8" standalone="no"?>
<!DOCTYPE svg PUBLIC "-//W3C//DTD SVG 1.1//EN" "http://www.w3.org/Graphics/SVG/1.1/DTD/svg11.dtd">
<!-- Generated by Microsoft Visio, SVG Export Certification Authority.svg Page-1 -->
<svg xmlns="http://www.w3.org/2000/svg" xmlns:xlink="http://www.w3.org/1999/xlink" xmlns:ev="http://www.w3.org/2001/xml-events"
		width="1.68032in" height="1.7713in" viewBox="0 0 120.983 127.534" xml:space="preserve" color-interpolation-filters="sRGB"
		class="st10">
	<style type="text/css">
	<![CDATA[
		.st1 {fill:url(#grad0-11);stroke:none;stroke-linecap:butt;stroke-width:35.9595}
		.st2 {fill:#003067;stroke:none;stroke-linecap:butt;stroke-width:35.9595}
		.st3 {fill:#50e6ff;stroke:none;stroke-linecap:butt;stroke-width:35.9595}
		.st4 {fill:url(#grad0-31);stroke:none;stroke-linecap:butt;stroke-width:33.9996}
		.st5 {fill:#ffffff;stroke:none;stroke-linecap:butt;stroke-width:33.9996}
		.st6 {fill:#d15900;stroke:none;stroke-linecap:butt;stroke-width:33.9996}
		.st7 {fill:#b31b1b;stroke:none;stroke-linecap:butt;stroke-width:33.9996}
		.st8 {fill:#e62323;stroke:none;stroke-linecap:butt;stroke-width:33.9996}
		.st9 {fill:#ffb34d;stroke:none;stroke-linecap:butt;stroke-width:33.9996}
		.st10 {fill:none;fill-rule:evenodd;font-size:12px;overflow:visible;stroke-linecap:square;stroke-miterlimit:3}
	]]>
	</style>

	<defs id="Patterns_And_Gradients">
		<linearGradient id="grad0-11" x1="0" y1="0" x2="1" y2="0" gradientTransform="rotate(-90 0.5 0.5)">
			<stop offset="0" stop-color="#949494" stop-opacity="1"/>
			<stop offset="0.53" stop-color="#a2a2a2" stop-opacity="1"/>
			<stop offset="1" stop-color="#b3b3b3" stop-opacity="1"/>
		</linearGradient>
		<linearGradient id="grad0-31" x1="0" y1="0" x2="1" y2="0" gradientTransform="rotate(-90 0.5 0.5)">
			<stop offset="0" stop-color="#e27908" stop-opacity="1"/>
			<stop offset="0.325" stop-color="#e47d0a" stop-opacity="1"/>
			<stop offset="0.62" stop-color="#eb8810" stop-opacity="1"/>
			<stop offset="0.91" stop-color="#f69a19" stop-opacity="1"/>
			<stop offset="1" stop-color="#faa21d" stop-opacity="1"/>
		</linearGradient>
	</defs>
	<g>
		<title>Page-1</title>
		<g id="group15417-1" transform="translate(35.9598,-34.8809)">
			<title>Certification Authority.15417</title>
			<g id="group15418-2">
				<title>Page-1</title>
				<g id="group15419-3">
					<title>Sheet.15419</title>
					<g id="group15420-4" transform="translate(0,-1.07865)">
						<title>Sheet.15420</title>
						<g id="group15421-5">
							<title>Icon-databases-136.149</title>
							<g id="group15422-6">
								<title>path4-5</title>
								<g id="group15423-7">
									<title>Sheet.15423</title>
									<g id="shape15424-8">
										<title>Sheet.15424</title>
										<path d="M33.71 125.64 A1.9908 1.92945 -180 0 1 31.75 127.53 L1.95 127.53 A1.95648 1.89617
													 -180 0 1 -0 125.64 L0 73.81 A1.92215 1.86291 -180 0 1 1.95 71.92 L31.75 71.92
													 A1.95648 1.89617 -180 0 1 33.71 73.81 L33.71 125.64 Z" class="st1"/>
									</g>
								</g>
							</g>
							<g id="group15425-12" transform="translate(4.94268,-32.5676)">
								<title>path6-7</title>
								<g id="group15426-13">
									<title>Sheet.15426</title>
									<g id="shape15427-14">
										<title>Sheet.15427</title>
										<path d="M0 123.98 A3.67269 3.55949 -180 0 1 3.64 120.45 L20.45 120.45 A3.67269 3.55949 -180
													 0 1 24.23 123.98 A3.67269 3.55949 -180 0 1 20.45 127.53 L3.64 127.53 A3.67269
													 3.55949 -180 0 1 -0 123.98 ZM0 113.47 A3.67269 3.55949 -180 0 1 3.64 109.91
													 L20.45 109.91 A3.67269 3.55949 -180 0 1 24.23 113.47 A3.67269 3.55949 -180 0
													 1 20.45 117 L3.64 117 A3.67269 3.55949 -180 0 1 -0 113.47 Z" class="st2"/>
									</g>
								</g>
							</g>
							<g id="group15428-16" transform="translate(6.31564,-44.2395)">
								<title>circle8-5</title>
								<g id="group15429-17">
									<title>Sheet.15429</title>
									<g id="shape15430-18">
										<title>Sheet.15430</title>
										<ellipse cx="2.47134" cy="125.138" rx="2.47134" ry="2.39517" class="st3"/>
									</g>
								</g>
							</g>
							<g id="group15431-20" transform="translate(6.31564,-33.7274)">
								<title>circle10-2</title>
								<g id="group15432-21">
									<title>Sheet.15432</title>
									<g id="shape15433-22">
										<title>Sheet.15433</title>
										<ellipse cx="2.47134" cy="125.138" rx="2.47134" ry="2.39517" class="st3"/>
									</g>
								</g>
							</g>
						</g>
					</g>
					<g id="group15434-24" transform="translate(16.146,-2.70006E-13)">
						<title>Management Certificate</title>
						<g id="group15435-25">
							<title>g14</title>
							<g id="group15436-26" transform="translate(0,-6.78542)">
								<title>rect2</title>
								<g id="group15437-27">
									<title>Sheet.15437</title>
									<g id="shape15438-28">
										<title>Sheet.15438</title>
										<path d="M-0 126.44 A1.16264 1.09454 -0 0 0 1.16 127.53 L33.72 127.53 A1.16264 1.09454 -0
													 0 0 34.88 126.44 L34.88 105.37 A1.16264 1.09454 -0 0 0 33.72 104.28 L1.16 104.28
													 A1.16264 1.09454 -0 0 0 0 105.37 L0 126.44 Z" class="st4"/>
									</g>
								</g>
							</g>
							<g id="group15439-32" transform="translate(2.03303,-8.8311)">
								<title>rect4</title>
								<g id="group15440-33">
									<title>Sheet.15440</title>
									<g id="shape15441-34">
										<title>Sheet.15441</title>
										<path d="M0 126.99 a0.581318 0.547268 -0 0 0 0.581306 0.547255 L30.23 127.53 a0.581318 0.547268
													 -0 0 0 0.581306 -0.547255 L30.82 108.93 a0.581318 0.547268 -0 0 0 -0.581306
													 -0.547255 L0.58 108.39 a0.581318 0.547268 -0 0 0 -0.581306 0.547255 L0 126.99
													 Z" class="st5"/>
									</g>
								</g>
							</g>
							<g id="group15442-36" transform="translate(6.70314,-13.8645)">
								<title>path6</title>
								<g id="group15443-37">
									<title>Sheet.15443</title>
									<g id="shape15444-38">
										<title>Sheet.15444</title>
										<path d="M22.26 127 a0.561928 0.529013 0 0 1 -0.561928 0.529013 L9.12 127.53 a0.561928 0.529013
													 0 1 1 -1.24345E-14 -1.0562 L21.69 126.48 a0.55999 0.52719 0 0 1 0.561928 0.52719
													 L22.26 127 ZM22.26 123.75 a0.55999 0.52719 0 0 1 -0.561928 0.52719 L9.12 124.27
													 a0.561928 0.529013 0 1 1 -1.42109E-14 -1.0562 L21.69 123.21 a0.561928 0.529013
													 0 0 1 0.561928 0.529013 L22.26 123.75 ZM22.26 118.97 a0.561928 0.529013 0 0
													 1 -0.561928 0.529013 L0.59 119.5 a0.561928 0.529013 0 1 1 -1.43219E-14 -1.0562
													 L21.69 118.44 a0.55999 0.52719 0 0 1 0.561928 0.52719 L22.26 118.97 Z"
												class="st6"/>
									</g>
								</g>
							</g>
							<g id="group15445-40" transform="translate(2.9976,1.56319E-13)">
								<title>path8</title>
								<g id="group15446-41">
									<title>Sheet.15446</title>
									<g id="shape15447-42">
										<title>Sheet.15447</title>
										<path d="M6.95 119.26 A4.89265 4.60607 0 0 1 0.41 119.26 L0 126.91 a0.645249 0.607453 -0
													 0 0 1.10448 0.456046 L3.62 124.96 L6.16 127.39 a0.645249 0.607453 -0 0 0 1.11223
													 -0.443277 L6.95 119.26 Z" class="st7"/>
									</g>
								</g>
							</g>
							<g id="group15448-44" transform="translate(0.902961,-6.6693)">
								<title>ellipse10</title>
								<g id="group15449-45">
									<title>Sheet.15449</title>
									<g id="shape15450-46">
										<title>Sheet.15450</title>
										<ellipse cx="5.83824" cy="122.019" rx="5.83824" ry="5.5145" class="st8"/>
									</g>
								</g>
							</g>
							<g id="group15451-48" transform="translate(2.31166,-7.99975)">
								<title>ellipse12</title>
								<g id="group15452-49">
									<title>Sheet.15452</title>
									<g id="shape15453-50">
										<title>Sheet.15453</title>
										<ellipse cx="4.42954" cy="123.351" rx="4.42954" ry="4.18286" class="st9"/>
									</g>
								</g>
							</g>
						</g>
					</g>
				</g>
			</g>
		</g>
	</g>
</svg>
